!!!COM: des Prez, Josquin
!!!CDT: ~1450-1521/08/27
!!!COA: Isaac, Heinrich
!!!OTL@@FRA: Adieu mes amours / Adieu mes amours
!!!AGN: Chanson
!!!SCT: NJE 28.3
!!!SCA: New Josquin Edition 28.3
!!!voices: 4
**kern	**text	**kern	**text	**kern	**text	**kern	**text
*staff4	*	*staff3	*	*staff2	*	*staff1	*
*Ivox	*	*Ivox	*	*Ivox	*	*Ivox	*
*I"Bassus	*	*I"Tenor	*	*I"Altus	*	*I"Superius	*
*I'B	*	*I'T	*	*I'A	*	*I'S	*
*clefF4	*	*clefGv2	*	*clefGv2	*	*clefG2	*
*k[b-]	*	*k[b-]	*	*k[b-]	*	*k[b-]	*
*M2/1	*	*M2/1	*	*M2/1	*	*M2/1	*
*met(C|)	*	*met(C|)	*	*met(C|)	*	*met(C|)	*
=1-	=1-	=1-	=1-	=1-	=1-	=1-	=1-
!	!	!	!	!	!	!LO:TX:Z=30:t=Combinative chanson	!
!	!	!LO:TX:Z=8:t=Lower vv.&colon; quasi canon at the 4th	!	!LO:TX:Z=16:t=Altus text conjectural; choice to align with T, B based on mm. 21 ff.  	!	!LO:TX:Z=8:t=Internal repetitions argue against performance as a full rondeau; cf. NJE vol. 28	!
0r	.	0r	.	0g	A-	1g	A-
.	.	.	.	.	.	1b-	-dieu
=2	=2	=2	=2	=2	=2	=2	=2
0r	.	0r	.	1f	.	1a	mes
.	.	.	.	[1g	-dieu	1g	a-
=3	=3	=3	=3	=3	=3	=3	=3
0r	.	1G	A-	2g\]	.	1.dd	-mours
.	.	.	.	2f\	.	.	.
.	.	1B-	-dieu	1d	.	.	.
.	.	.	.	.	.	4cc\	.
.	.	.	.	.	.	4b-\	.
=4	=4	=4	=4	=4	=4	=4	=4
0r	.	1A	mes	2e\	mes	1cc	.
.	.	.	.	2f\	.	.	.
.	.	1G	a-	1g	a-	1b-	.
=5	=5	=5	=5	=5	=5	=5	=5
1D	A-	0d	-mours,	1.f	-mours	2r	.
.	.	.	.	.	.	1a	a-
1F	-dieu	.	.	.	.	.	.
.	.	.	.	4e\	.	4g/	.
.	.	.	.	4d\	.	4f/	.
=6	=6	=6	=6	=6	=6	=6	=6
1E	mes	0r	.	1c	.	1g	-mours,
1D	a-	.	.	1d	.	1f	.
=7	=7	=7	=7	=7	=7	=7	=7
0A	-mours,	0r	.	1e	.	2r	.
.	.	.	.	.	.	1cc	a-
.	.	.	.	1f	.	.	.
.	.	.	.	.	.	4b-\	.
.	.	.	.	.	.	4a/	.
=8	=8	=8	=8	=8	=8	=8	=8
1.G	a-	0r	.	2.B-\	a-	2b-\	-mours,
.	.	.	.	.	.	1g	.
.	.	.	.	4c\	.	.	.
.	.	.	.	2e-\	.	.	.
2F\	-dieu	.	.	[2d\	-dieu	[2a/	m'a-
=9	=9	=9	=9	=9	=9	=9	=9
1E	vous	0r	.	4d\]	.	2a/]	.
.	.	.	.	4c\	.	.	.
.	.	.	.	1c	.	4g/	.
.	.	.	.	.	.	4a/	.
1D	com-	.	.	.	.	4b-\	.
.	.	.	.	.	.	4a/	.
.	.	.	.	2Bni\	.	4g/	.
.	.	.	.	.	.	4f/	.
=10	=10	=10	=10	=10	=10	=10	=10
0C	-mand.	1.c	a-	2.c\	vous	0e	-tent.
.	.	.	.	4d\	.	.	.
.	.	.	.	4e\	.	.	.
.	.	.	.	4f\	.	.	.
.	.	2B-\	-dieu	[2g\	.	.	.
=11	=11	=11	=11	=11	=11	=11	=11
0r	.	1A	vous	4g\]	.	1r	.
.	.	.	.	4f\	.	.	.
.	.	.	.	1f	.	.	.
.	.	1G	com-	.	.	1g	Ma
.	.	.	.	2e\	com-	.	.
=12	=12	=12	=12	=12	=12	=12	=12
1D	A-	0F	-mand.	2f\	-mand.	1.a	bour-
.	.	.	.	2.d\	A-	.	.
1F	-dieu	.	.	.	.	.	.
.	.	.	.	4c\	.	.	.
.	.	.	.	4B-\	.	2b-\	.
.	.	.	.	4A/	.	.	.
=13	=13	=13	=13	=13	=13	=13	=13
1E	je	0r	.	1G	.	1cc	-se,
1D	vous	.	.	2.A/	-dieu	1dd	.
.	.	.	.	4B-\	.	.	.
=14	=14	=14	=14	=14	=14	=14	=14
0A	dy	0r	.	2c\	.	2r	.
.	.	.	.	2d\	.	1cc	ma
.	.	.	.	2e\	.	.	.
.	.	.	.	2f\	.	4b-\	.
.	.	.	.	.	.	4a/	.
=15	=15	=15	=15	=15	=15	=15	=15
1.G	jus-	1G	A-	2.B-\	je	2.b-\	bour-
.	.	.	.	4c\	.	4a/	.
.	.	1B-	-dieu	4d\	.	2b-\	.
.	.	.	.	4e\	.	.	.
2F\	-quez	.	.	[2f\	.	4a/	.
.	.	.	.	.	.	4g/	.
=16	=16	=16	=16	=16	=16	=16	=16
1D	au	1A	je	4f\]	.	1f	-se
.	.	.	.	4e\	.	.	.
.	.	.	.	1d	.	.	.
1E	prin-	1G	vous	.	.	1g	.
.	.	.	.	2c#i\	vous	.	.
=17	=17	=17	=17	=17	=17	=17	=17
0D	-temps,	0d	dy	1d	dy	2r	.
.	.	.	.	.	.	2.f/	n'en-
.	.	.	.	2r	.	.	.
.	.	.	.	.	.	4g/	.
.	.	.	.	[2F/	jus-	4a/	.
.	.	.	.	.	.	4b-\	.
=18	=18	=18	=18	=18	=18	=18	=18
1A	jus-	1.c	jus-	4F/]	.	2.cc\	.
.	.	.	.	4G/	.	.	.
.	.	.	.	4A/	.	.	.
.	.	.	.	4B-\	.	4b-\	.
2F\	-quez	.	.	2c\	-quez	4a/	.
.	.	.	.	.	.	4g/	.
[2G\	au	2B-\	-quez	[2G/	au	[2b-\	.
=19	=19	=19	=19	=19	=19	=19	=19
2G\]	.	1G	au	4G/]	.	4b-\]	.
.	.	.	.	4A/	.	4a/	.
2E\	.	.	.	4B-\	.	1g	.
.	.	.	.	4c\	.	.	.
1D	prin-	1A	prin-	2.d\	prin-	.	.
.	.	.	.	.	.	2f#i/	.
.	.	.	.	4c\	.	.	.
=20	=20	=20	=20	=20	=20	=20	=20
0G	-temps.	[0G	-temps.	0d	-temps.	1.g	-fle,
.	.	.	.	.	.	[2b-\	n'en-
=21	=21	=21	=21	=21	=21	=21	=21
0r	.	0G]	.	1G	Je	2b-\]	.
.	.	.	.	.	.	4a/	.
.	.	.	.	.	.	4g/	.
.	.	.	.	1d	suis	1b-	.
=22	=22	=22	=22	=22	=22	=22	=22
1D	Je	0r	.	1d	en	1.a	-fle,
1A	suis	.	.	1c	sou-	.	.
.	.	.	.	.	.	[2cc\	n'en-
=23	=23	=23	=23	=23	=23	=23	=23
1F	en	0r	.	0d	-ci	2cc\]	.
.	.	.	.	.	.	4b-\	.
.	.	.	.	.	.	4a/	.
1G	sou-	.	.	.	.	4b-\	.
.	.	.	.	.	.	4a/	.
.	.	.	.	.	.	4g/	.
.	.	.	.	.	.	4f/	.
=24	=24	=24	=24	=24	=24	=24	=24
0A	-ci	0r	.	1c	de	1e	-fle
.	.	.	.	1A	quoy	1f	.
=25	=25	=25	=25	=25	=25	=25	=25
1.G	de	1G	Je	1.B-	je	1.g	s'e-
.	.	1d	suis	.	.	.	.
2F\	quoy	.	.	4A/	.	[2a/	.
.	.	.	.	4G/	.	.	.
=26	=26	=26	=26	=26	=26	=26	=26
1D	je	1d	en	1F	.	4a/]	.
.	.	.	.	.	.	4g/	.
.	.	.	.	.	.	1b-	.
1E-i	vi-	1c	sou-	1G	vi-	.	.
.	.	.	.	.	.	4a/	.
.	.	.	.	.	.	4g/	.
=27	=27	=27	=27	=27	=27	=27	=27
0D	-vray.	0d	-ci	1A	-vray,	0f	-tend,
.	.	.	.	2r	.	.	.
.	.	.	.	2d\	de	.	.
=28	=28	=28	=28	=28	=28	=28	=28
0r	.	1.c	de	2.e\	quoy	0r	.
.	.	.	.	4f\	.	.	.
.	.	.	.	4g\	.	.	.
.	.	.	.	4a\	.	.	.
.	.	2B-\	quoy	[2b-\	je	.	.
=29	=29	=29	=29	=29	=29	=29	=29
0r	.	1G	je	4b-\]	.	1r	.
.	.	.	.	4a\	.	.	.
.	.	.	.	1g	.	.	.
.	.	1A	vi-	.	.	1cc	Et
.	.	.	.	2f#i\	vi-	.	.
=30	=30	=30	=30	=30	=30	=30	=30
0r	.	[0G	vray.	1g	-vray.	2b-\	brief
.	.	.	.	.	.	2.dd\	.
.	.	.	.	1r	.	.	.
.	.	.	.	.	.	4cc\	.
.	.	.	.	.	.	4b-\	.
.	.	.	.	.	.	4a/	.
=31	=31	=31	=31	=31	=31	=31	=31
0r	.	0G]	.	1G	La	2g/	.
.	.	.	.	.	.	1b-	je
.	.	.	.	1d	rai-	.	.
.	.	.	.	.	.	4a/	.
.	.	.	.	.	.	4g/	.
=32	=32	=32	=32	=32	=32	=32	=32
1D	La	0r	.	1d	-son	2f/	.
.	.	.	.	.	.	2.a/	suis
1A	rai-	.	.	1c	pour-	.	.
.	.	.	.	.	.	4b-\	.
.	.	.	.	.	.	[2cc\	.
=33	=33	=33	=33	=33	=33	=33	=33
1F	-son	0r	.	0d	-quoy,	2cc\]	.
.	.	.	.	.	.	4b-\	.
.	.	.	.	.	.	4a/	.
1G	pour-	.	.	.	.	4b-\	.
.	.	.	.	.	.	4a/	.
.	.	.	.	.	.	4g/	.
.	.	.	.	.	.	4f/	.
=34	=34	=34	=34	=34	=34	=34	=34
0A	-quoy,	0r	.	1c	je	1e	.
.	.	.	.	1A	la	1f	en
=35	=35	=35	=35	=35	=35	=35	=35
1.G	je	1G	La	1.B-	vous	1.g	des-
.	.	1d	rai-	.	.	.	.
2F\	la	.	.	4A/	.	[2a/	-ar-
.	.	.	.	4G/	.	.	.
=36	=36	=36	=36	=36	=36	=36	=36
1D	vous	1d	-son	1F	.	4a/]	.
.	.	.	.	.	.	4g/	.
.	.	.	.	.	.	1b-	.
1E-i	di-	1c	pour-	1G	di-	.	.
.	.	.	.	.	.	4a/	.
.	.	.	.	.	.	4g/	.
=37	=37	=37	=37	=37	=37	=37	=37
2D\	-ray,	0d	-quoy,	2A/	-ray,	0f	-roy,
2.BB-/	je	.	.	2B-\	je	.	.
.	.	.	.	2.F/	la	.	.
4C/	.	.	.	.	.	.	.
4D\	.	.	.	.	.	.	.
4E-i\	.	.	.	4G/	.	.	.
=38	=38	=38	=38	=38	=38	=38	=38
2F\	.	1.c	je	4A/	.	1r	.
.	.	.	.	4B-\	.	.	.
2.C/	la	.	.	2c\	.	.	.
.	.	.	.	2.G/	vous	1e	des-
4D\	.	.	.	.	.	.	.
4E-i\	.	2B-\	la	.	.	.	.
4F\	.	.	.	4A/	.	.	.
=39	=39	=39	=39	=39	=39	=39	=39
2G\	vous	1G	vous	2B-\	.	2d/	-ar-
2E-i\	.	.	.	2c\	di-	1g	-roy
1D	di-	1A	di-	[1d	-ray&colon;	.	.
.	.	.	.	.	.	2f#i/	.
=40	=40	=40	=40	=40	=40	=40	=40
0G	-ray&colon;	0G	-ray&colon;	1d]	.	1g	Jus-
.	.	.	.	1g	Je	1b-	-quez
=41	=41	=41	=41	=41	=41	=41	=41
0r	.	0r	.	1f	n'ay	1a	a
.	.	.	.	[1g	point	1g	ce
=42	=42	=42	=42	=42	=42	=42	=42
0r	.	1G	Je	2g\]	.	1.dd	qu'il,
.	.	.	.	2f\	.	.	.
.	.	1B-	n'ay	1d	.	.	.
.	.	.	.	.	.	4cc\	.
.	.	.	.	.	.	4b-\	.
=43	=43	=43	=43	=43	=43	=43	=43
0r	.	1A	point	2e\	d'ar-	1cc	.
.	.	.	.	2f\	.	.	.
.	.	1G	d'ar-	1g	.	1b-	.
=44	=44	=44	=44	=44	=44	=44	=44
1D	Je	0d	-gent;	1.f	-gent;	2r	.
.	.	.	.	.	.	1a	a
1F	n'ay	.	.	.	.	.	.
.	.	.	.	4e\	.	4g/	ce
.	.	.	.	4d\	.	4f/	.
=45	=45	=45	=45	=45	=45	=45	=45
1E	point	0r	.	1c	.	1g	qu'il,
1D	d'ar-	.	.	1d	.	1f	.
=46	=46	=46	=46	=46	=46	=46	=46
0A	-gent;	0r	.	1e	.	2r	.
.	.	.	.	.	.	1cc	plaise
.	.	.	.	1f	.	.	.
.	.	.	.	.	.	4b-\	.
.	.	.	.	.	.	4a/	.
=47	=47	=47	=47	=47	=47	=47	=47
1.G	vi-	0r	.	2.B-\	vi-	2b-\	.
.	.	.	.	.	.	1g	.
.	.	.	.	4c\	.	.	.
.	.	.	.	2e-i\	-vray	.	.
2F\	-vray	.	.	[2d\	je	[2a/	au
=48	=48	=48	=48	=48	=48	=48	=48
1E	je	0r	.	4d\]	.	2a/]	.
.	.	.	.	4c\	.	.	.
.	.	.	.	1c	.	4g/	.
.	.	.	.	.	.	4a/	.
1D	du	.	.	.	.	4b-\	.
.	.	.	.	.	.	4a/	.
.	.	.	.	2Bni\	du	4g/	.
.	.	.	.	.	.	4f/	.
=49	=49	=49	=49	=49	=49	=49	=49
0C	vent	1.c	vi-	2.c\	vent	0e	roy,
.	.	.	.	4d\	.	.	.
.	.	.	.	4e\	.	.	.
.	.	.	.	4f\	.	.	.
.	.	2B-\	-vray	[2g\	.	.	.
=50	=50	=50	=50	=50	=50	=50	=50
0r	.	1A	je	4g\]	.	1r	.
.	.	.	.	4f\	.	.	.
.	.	.	.	1f	.	.	.
.	.	1G	du	.	.	1g	Me
.	.	.	.	2e\	.	.	.
=51	=51	=51	=51	=51	=51	=51	=51
1D	Se	0F	vent	2f\	.	1.a	fai-
.	.	.	.	2.d\	Se	.	.
1F	l'ar-	.	.	.	.	.	.
.	.	.	.	4c\	.	.	.
.	.	.	.	4B-\	l'ar-	2b-\	.
.	.	.	.	4A/	.	.	.
=52	=52	=52	=52	=52	=52	=52	=52
1E	-gent	0r	.	1G	-gent	1cc	-re
1D	du	.	.	2.A/	du	1dd	.
.	.	.	.	4B-\	.	.	.
=53	=53	=53	=53	=53	=53	=53	=53
0A	roy	0r	.	2c\	roy	2r	.
.	.	.	.	2d\	.	1cc	a-
.	.	.	.	2e\	.	.	.
.	.	.	.	2f\	.	4b-\	.
.	.	.	.	.	.	4a/	.
=54	=54	=54	=54	=54	=54	=54	=54
1.G	ne	1G	Se	2.B-\	ne	2.b-\	-van-
.	.	.	.	4c\	.	4a/	.
.	.	1B-	l'ar-	4d\	.	2b-\	.
.	.	.	.	4e\	.	.	.
2F\	vient	.	.	[2f\	vient	4a/	.
.	.	.	.	.	.	4g/	.
=55	=55	=55	=55	=55	=55	=55	=55
1D	plus	1A	-gent	4f\]	.	1f	-cer
.	.	.	.	4e\	.	.	.
.	.	.	.	1d	plus	.	.
1E	sou-	1G	du	.	.	1g	.
.	.	.	.	2c#i\	sou-	.	.
=56	=56	=56	=56	=56	=56	=56	=56
0D	-vent,	0d	roy	1d	-vent,	2r	.
.	.	.	.	.	.	2.f/	du
.	.	.	.	2r	.	.	.
.	.	.	.	.	.	4g/	.
.	.	.	.	[2F/	ne	4a/	.
.	.	.	.	.	.	4b-\	.
=57	=57	=57	=57	=57	=57	=57	=57
1A	ne	1.c	ne	4F/]	.	2.cc\	con-
.	.	.	.	4G/	.	.	.
.	.	.	.	4A/	.	.	.
.	.	.	.	4B-\	.	4b-\	.
2F\	vient	.	.	2c\	.	4a/	.
.	.	.	.	.	.	4g/	.
[2G\	plus	2B-\	vient	[2G/	vient	[2b-\	.
=58	=58	=58	=58	=58	=58	=58	=58
2G\]	.	1G	plus	4G/]	.	4b-\]	.
.	.	.	.	4A/	.	4a/	.
2E-i\	.	.	.	4B-\	.	1g	.
.	.	.	.	4c\	.	.	.
1D	sou-	1A	sou-	[1d	.	.	.
.	.	.	.	.	.	2f#i/	.
=59	=59	=59	=59	=59	=59	=59	=59
[0Gl	-vent?	[0Gl	-vent?	2d\]	.	[0gl	-tent.
.	.	.	.	2B-\	.	.	.
.	.	.	.	2.e-\	sou-	.	.
.	.	.	.	4d\	.	.	.
=60	=60	=60	=60	=60	=60	=60	=60
0G]	.	0G]	.	0dl	-vent.	0g]	.
==	==	==	==	==	==	==	==
*-	*-	*-	*-	*-	*-	*-	*-
!!!RDF**kern: l=long note in original notation
!!!RDF**kern: i=editorial accidental
!!!ENC: Jesse Rodin 2011/07/27
!!!END: 2011/07/27/
!!!EED: Jesse Rodin
!!!EEV: 2011/08/08/
!!attribution-level@Jos: 1 (secure, core group [checkmark])
!!!ONB: Translated from MusicXML and edited on 2011/08/08/ by Craig Sapp
!!muse2ps:  C^@{COM}\n@{SCT}^i2I150v90,90,90,120c115z18l2700t130
